X: 836
P: Longways for as many as will
M: 6/4
L: 1/8
K: F
g4a2 g4a2 | b4a2 g4f2 | g2e2f2 d4c2 | c6- c4 |]
a2 |\
g2a2f2 e2f2d2 | c2d2B2 A2B2G2 | F2G2A2 F2G2A2 | B6- B4c2 |\
d4c2 d4c2 | d4c2 d4c2 | d2e2f2 f4e2 | f6- f4 |]

